X: 1717
T: Miss McGregor's Daughter
B: australian traditional tunes wiki
M:6/8
L:1/8
R: Jig
Q: 3/8=100
K:G
V:1 
||"G"GAB "Bm"D2D|"C"c2B "D"A2G|"G"GAB "Bm"D2D|"C"E2F "G"G2G|"G"GAB "Bm"D2D|"C"c2B "D"A2G|"G"GAB "Bm"D2D|"C"E2F "G"G3-|\\
G2c|
|"G"d2B "C"cde|"G"d2B G2c|d2B "C"cde|"G"d3-dBd|"C"e2c "Am"ABc|"G"d2B"Em"G3|"G"GAB "Bm"D2D|1"C"E2F"G"G2G:|2"C"E2F"G"G3||
% abcbook-tune_id 6342d53a6f46ffbf82df9c6e


% abcbook-boost 0
% abcbook-tablature 
% abcbook-transpose 
% abcbook-lastupdated 1665324379822
% abcbook-soundfonts 
% abcbook-repeats 1
% NFF Book 2013

